X: 1
T: Clanuff's Delight
B: A COLECTION of the most Celebrated Irish Tunes19
M: 3/4
L: 1/16
K: G
(D2EF) | G4 B4 d4 | Te8 (d2ef) | (g2>a2) TB4 (efg2) | A8 (G2E2) |
G4 (e2f2) (efed) | {f2}e4 (gage) (d2B2) | G4 (cBAG) (BAGF) | G8 :|
|: (d2ef) |\
Tg6 a2 (gab2) | (abag) (fgfe) d4 | (=f2e2) (f2g2) (fgag) | Te8 (d2ef) |
(g2f2) (g2a2) (g2ab) | a2g2 (fgfe) (d2c2) | (B2A2) (B2c2) (Bcd2) | Te8 (d2ef) |
(g2f2) (g2a2) (g2G2) | (G2F2) (G2A2) (G2g2) | (f2e2) (d2B2) (ABAG) | A6 G2 E4 |
G4 (e2f2) (efed) | {f2}e4 (gage) (edcB) | G4 (cdcB) ABAF | G8 :|
